material/.icons/material/railroad-light.svg

<svg xmlns="http://www.w3.org/2000/svg" viewBox="0 0 24 24"><path d="M17.67 10.5c-1.27 0-2.4.8-2.82 2h-1.68V7.77l3.49 2.09 1-1.72L14.11 6l3.57-2.14-1-1.72-3.51 2.09V2h-2v2.23L7.68 2.14l-1 1.72L10.23 6 6.66 8.14l1 1.72 3.51-2.09v4.73H9.5c-1.14-3.18-5.84-2.37-5.84 1s4.7 4.18 5.84 1h1.67V20a2 2 0 00-2 2h6a2 2 0 00-2-2v-5.5h1.68c.81 2.3 3.88 2.72 5.28.73 1.4-1.99-.03-4.73-2.46-4.73m-11 4c-.89 0-1.34-1.08-.71-1.71.63-.63 1.71-.18 1.71.71a1 1 0 01-1 1m11 0c-.89 0-1.34-1.08-.71-1.71.63-.63 1.71-.18 1.71.71a1 1 0 01-1 1z"/></svg>

<?xml version="1.0" encoding="UTF-8"?><!DOCTYPE svg PUBLIC "-//W3C//DTD SVG 1.1//EN" "http://www.w3.org/Graphics/SVG/1.1/DTD/svg11.dtd"><svg xmlns="http://www.w3.org/2000/svg" xmlns:xlink="http://www.w3.org/1999/xlink" version="1.1" id="mdi-railroad-light" width="24" height="24" viewBox="0 0 24 24"><path d="M17.67,10.5C16.4,10.5 15.27,11.3 14.85,12.5H13.17V7.77L16.66,9.86L17.66,8.14L14.11,6L17.68,3.86L16.68,2.14L13.17,4.23V2H11.17V4.23L7.68,2.14L6.68,3.86L10.23,6L6.66,8.14L7.66,9.86L11.17,7.77V12.5H9.5C8.36,9.32 3.66,10.13 3.66,13.5C3.66,16.87 8.36,17.68 9.5,14.5H11.17V20A2,2 0 0,0 9.17,22H15.17A2,2 0 0,0 13.17,20V14.5H14.85C15.66,16.8 18.73,17.22 20.13,15.23C21.53,13.24 20.1,10.5 17.67,10.5M6.67,14.5C5.78,14.5 5.33,13.42 5.96,12.79C6.59,12.16 7.67,12.61 7.67,13.5A1,1 0 0,1 6.67,14.5M17.67,14.5C16.78,14.5 16.33,13.42 16.96,12.79C17.59,12.16 18.67,12.61 18.67,13.5A1,1 0 0,1 17.67,14.5Z" /></svg>
